flaticon/business/folder-1.svg

<svg xmlns="http://www.w3.org/2000/svg" width="32" height="32" viewBox="0 0 24 24">
    <path d="M 16.285156 0 L 0 0 L 0 24 L 24 24 L 24 0 Z M 7.714844 23.144531 L 0.855469 23.144531 L 0.855469 0.855469 L 7.714844 0.855469 Z M 15.429688 23.144531 L 8.570312 23.144531 L 8.570312 0.855469 L 15.429688 0.855469 Z M 23.144531 23.144531 L 16.285156 23.144531 L 16.285156 0.855469 L 23.144531 0.855469 Z M 23.144531 23.144531"/>
    <path d="M6.855469 1.714844L1.714844 1.714844 1.714844 11.144531 6.855469 11.144531zM6 10.285156L2.570312 10.285156 2.570312 2.570312 6 2.570312zM14.570312 1.714844L9.429688 1.714844 9.429688 11.144531 14.570312 11.144531zM13.714844 10.285156L10.285156 10.285156 10.285156 2.570312 13.714844 2.570312zM22.285156 1.714844L17.144531 1.714844 17.144531 11.144531 22.285156 11.144531zM21.429688 10.285156L18 10.285156 18 2.570312 21.429688 2.570312zM4.285156 21.855469C5.703125 21.855469 6.855469 20.703125 6.855469 19.285156 6.855469 17.867188 5.703125 16.714844 4.285156 16.714844 2.867188 16.714844 1.714844 17.867188 1.714844 19.285156 1.714844 20.703125 2.867188 21.855469 4.285156 21.855469zM4.285156 17.570312C5.230469 17.570312 6 18.339844 6 19.285156 6 20.230469 5.230469 21 4.285156 21 3.339844 21 2.570312 20.230469 2.570312 19.285156 2.570312 18.339844 3.339844 17.570312 4.285156 17.570312zM12 21.855469C13.417969 21.855469 14.570312 20.703125 14.570312 19.285156 14.570312 17.867188 13.417969 16.714844 12 16.714844 10.582031 16.714844 9.429688 17.867188 9.429688 19.285156 9.429688 20.703125 10.582031 21.855469 12 21.855469zM12 17.570312C12.945312 17.570312 13.714844 18.339844 13.714844 19.285156 13.714844 20.230469 12.945312 21 12 21 11.054688 21 10.285156 20.230469 10.285156 19.285156 10.285156 18.339844 11.054688 17.570312 12 17.570312zM19.714844 21.855469C21.132812 21.855469 22.285156 20.703125 22.285156 19.285156 22.285156 17.867188 21.132812 16.714844 19.714844 16.714844 18.296875 16.714844 17.144531 17.867188 17.144531 19.285156 17.144531 20.703125 18.296875 21.855469 19.714844 21.855469zM19.714844 17.570312C20.660156 17.570312 21.429688 18.339844 21.429688 19.285156 21.429688 20.230469 20.660156 21 19.714844 21 18.769531 21 18 20.230469 18 19.285156 18 18.339844 18.769531 17.570312 19.714844 17.570312zM19.714844 17.570312"/>
</svg>

<svg xmlns="http://www.w3.org/2000/svg" width="32" height="32" viewBox="0 0 24 24">
    <path d="M16.285 0H0v24h24V0zm-8.57 23.145H.855V.855h6.86zm7.715 0H8.57V.855h6.86zm7.715 0h-6.86V.855h6.86zm0 0"/>
    <path d="M6.855 1.715h-5.14v9.43h5.14zM6 10.285H2.57V2.57H6zm0 0M14.57 1.715H9.43v9.43h5.14zm-.855 8.57h-3.43V2.57h3.43zm0 0M22.285 1.715h-5.14v9.43h5.14zm-.855 8.57H18V2.57h3.43zm0 0M4.285 21.855a2.572 2.572 0 0 0 2.57-2.57 2.572 2.572 0 0 0-2.57-2.57 2.572 2.572 0 0 0-2.57 2.57 2.572 2.572 0 0 0 2.57 2.57zm0-4.285c.945 0 1.715.77 1.715 1.715C6 20.23 5.23 21 4.285 21c-.945 0-1.715-.77-1.715-1.715 0-.945.77-1.715 1.715-1.715zm0 0M12 21.855a2.572 2.572 0 0 0 2.57-2.57 2.572 2.572 0 0 0-2.57-2.57 2.572 2.572 0 0 0-2.57 2.57 2.572 2.572 0 0 0 2.57 2.57zm0-4.285c.945 0 1.715.77 1.715 1.715 0 .945-.77 1.715-1.715 1.715-.945 0-1.715-.77-1.715-1.715 0-.945.77-1.715 1.715-1.715zm0 0M19.715 21.855a2.572 2.572 0 0 0 2.57-2.57 2.572 2.572 0 0 0-2.57-2.57 2.572 2.572 0 0 0-2.57 2.57 2.572 2.572 0 0 0 2.57 2.57zm0-4.285c.945 0 1.715.77 1.715 1.715 0 .945-.77 1.715-1.715 1.715C18.77 21 18 20.23 18 19.285c0-.945.77-1.715 1.715-1.715zm0 0"/>
</svg>
